X:2
T: Graf und Nonne (Die Nonne)
N: Q0155A
O: Mitteleuropa, Schweiz
N: Verzierungen (Vorschlaege) in der ersten und dritten Zeile.
N: Anhaengsel an der dritten Zeile.
R: Ballade, Standesunterschied, vergebliche Werbung, Liebe, Klage
M: 2/4
L: 1/16
K: D
DF | A2AdAFGE | F4E2
E2 | F2FAG2GB | A4z2
(3ABc | d2d2dcBA | B4A4 | G4F2
A2 | B2AGF2E2 | D4z2

@@@ Tune index: 1712
